X: 2174
Q: "Strathspey."
M: C
L: 1/8
K: D
uD |\
(3BAG (3FED (3EDC (3B,A,G, | (3A,B,C E>C D2D |[|\
uA |\
d>dA>d F>dA>d | c>de>f g2f>e |
d>dA>d F>dA>d | (3cBA (3Bce d2 d>A |\
d>dA>d F>dA>d | c>def g2(fe) |\
(3fed (3cde (3dcB (3AGF | (3GAB d>F D2D |]


